assets/icons/task/warning-filled.svg

<?xml version="1.0" encoding="UTF-8" standalone="no"?>
<svg
   viewBox="0 0 24 24"
   height="24"
   width="24"
   version="1.1"
   id="svg4"
   sodipodi:docname="warning-filled.svg"
   inkscape:version="1.2 (1:1.2.1+202207142221+cd75a1ee6d)"
   xmlns:inkscape="http://www.inkscape.org/namespaces/inkscape"
   xmlns:sodipodi="http://sodipodi.sourceforge.net/DTD/sodipodi-0.dtd"
   xmlns="http://www.w3.org/2000/svg"
   xmlns:svg="http://www.w3.org/2000/svg">
  <defs
     id="defs8" />
  <sodipodi:namedview
     id="namedview6"
     pagecolor="#ffffff"
     bordercolor="#666666"
     borderopacity="1.0"
     inkscape:pageshadow="2"
     inkscape:pageopacity="0.0"
     inkscape:pagecheckerboard="0"
     showgrid="true"
     inkscape:snap-page="true"
     inkscape:zoom="28"
     inkscape:cx="10.857143"
     inkscape:cy="12.607143"
     inkscape:window-width="1920"
     inkscape:window-height="1043"
     inkscape:window-x="0"
     inkscape:window-y="0"
     inkscape:window-maximized="1"
     inkscape:current-layer="svg4"
     inkscape:showpageshadow="2"
     inkscape:deskcolor="#d1d1d1">
    <inkscape:grid
       type="xygrid"
       id="grid821" />
    <inkscape:grid
       type="xygrid"
       id="grid823"
       dotted="true"
       spacingx="0.5"
       spacingy="0.5"
       empspacing="10" />
  </sodipodi:namedview>
  <path
     id="rect896"
     style="fill:#808080;fill-opacity:1;fill-rule:evenodd;stroke-width:0.5;stroke-linecap:round"
     d="M 11.5 2 C 10.119291 2 9 3.1192923 9 4.5 C 9.0027 4.668213 9.0222938 4.83573 9.0585938 5 L 8.5 5 C 7.000009 5 5.9439457 4.9492575 5.1171875 5.4453125 C 4.7038084 5.6933402 4.3972491 6.1012225 4.2285156 6.6074219 C 4.0597827 7.1136213 4 7.722227 4 8.5 L 4 17.5 C 4 18.277772 4.0597822 18.886381 4.2285156 19.392578 C 4.3972491 19.89878 4.7038084 20.306659 5.1171875 20.554688 C 5.8450438 20.9914 6.7702514 21.00316 8 21 L 11.089844 21 C 11.117959 20.917168 11.151991 20.835131 11.197266 20.755859 L 15.058594 14 L 7 14 L 7 13 L 16 13 L 16 13.089844 C 16.158275 13.033526 16.325529 13.000197 16.498047 13 C 16.499347 12.999997 16.500653 12.999997 16.501953 13 C 17.038013 13.000611 17.536773 13.290432 17.802734 13.755859 L 19 15.851562 L 19 9 L 19 8.5 C 19 7.722227 18.94022 7.1136213 18.771484 6.6074219 C 18.602755 6.1012225 18.296194 5.6933402 17.882812 5.4453125 C 17.056056 4.9492577 15.999993 5 14.5 5 L 13.941406 5 C 13.977706 4.83573 13.99735 4.668213 14 4.5 C 14 3.1192923 12.880709 2 11.5 2 z M 11.5 3 C 12.328424 3 13 3.6715753 13 4.5 C 13 5.3284247 12.328424 6 11.5 6 C 10.671576 6 10 5.3284247 10 4.5 C 10 3.6715753 10.671576 3 11.5 3 z M 7 9 L 16 9 L 16 10 L 7 10 L 7 9 z M 7 11 L 16 11 L 16 12 L 7 12 L 7 11 z M 7 15 L 12 15 L 12 16 L 7 16 L 7 15 z " />
  <path
     id="path1329"
     style="color:#000000;fill:#808080;fill-opacity:1;stroke-width:1px;stroke-linejoin:round;-inkscape-stroke:none"
     d="m 16.5,14 a 0.50005,0.50005 0 0 0 -0.433594,0.251953 l -4,7 a 0.50005,0.50005 0 0 0 0.433594,0.748047 h 8 a 0.50005,0.50005 0 0 0 0.433594,-0.748047 l -4,-7 a 0.50005,0.50005 0 0 0 -0.433594,-0.251953 z m -0.5,2 h 1 v 2 l -0.199219,1 h -0.601562 l -0.199219,-1 z m 0.5,4 a 0.5,0.5 0 0 1 0.5,0.5 0.5,0.5 0 0 1 -0.5,0.5 0.5,0.5 0 0 1 -0.5,-0.5 0.5,0.5 0 0 1 0.5,-0.5 z" />
</svg>

<svg height="24" width="24" xmlns="http://www.w3.org/2000/svg"><path style="fill:gray;fill-opacity:1;stroke-width:.5;stroke-linecap:round" d="M11.5 2A2.5 2.5 0 0 0 9 4.5c.003.168.022.336.059.5H8.5c-1.5 0-2.556-.05-3.383.445-.413.248-.72.656-.888 1.162C4.059 7.114 4 7.722 4 8.5v9c0 .778.06 1.386.229 1.893.168.506.475.914.888 1.162.728.436 1.653.448 2.883.445h3.09a1.38 1.38 0 0 1 .107-.244L15.06 14H7v-1h9v.09a1.489 1.489 0 0 1 .502-.09 1.5 1.5 0 0 1 1.3.756L19 15.852V8.5c0-.778-.06-1.386-.229-1.893-.168-.506-.475-.914-.888-1.162C17.056 4.95 16 5 14.5 5h-.559A2.5 2.5 0 0 0 14 4.5 2.5 2.5 0 0 0 11.5 2zm0 1a1.5 1.5 0 1 1 0 3 1.5 1.5 0 0 1 0-3zM7 9h9v1H7V9zm0 2h9v1H7v-1zm0 4h5v1H7v-1z"/><path style="color:#000;fill:gray;fill-opacity:1;stroke-width:1px;stroke-linejoin:round;-inkscape-stroke:none" d="M16.5 14a.5.5 0 0 0-.434.252l-4 7A.5.5 0 0 0 12.5 22h8a.5.5 0 0 0 .434-.748l-4-7A.5.5 0 0 0 16.5 14zm-.5 2h1v2l-.2 1h-.6l-.2-1zm.5 4a.5.5 0 0 1 .5.5.5.5 0 0 1-.5.5.5.5 0 0 1-.5-.5.5.5 0 0 1 .5-.5z"/></svg>
